app/assets/images/remix_icon/health/surgical-mask-fill.svg

<svg viewBox="0 0 24 24" xmlns="http://www.w3.org/2000/svg"><path d="M12.4851 3.12124L20.2425 5.0606C20.6877 5.1719 21 5.57188 21 6.03075V6.99952L22 6.99997C23.1 6.99997 24 7.89997 24 8.99997V12C24 13.6568 22.6569 15 21 15L20.5789 15.0003C20.0443 16.3501 19.0275 17.4862 17.6833 18.1583L12.8944 20.5528C12.3314 20.8343 11.6686 20.8343 11.1056 20.5528L6.31672 18.1583C4.97252 17.4862 3.95573 16.3501 3.42113 15.0003L3 15C1.34315 15 0 13.6568 0 12V8.99997C0 7.8954 0.89543 6.99997 2 6.99997L3 6.99952V6.03075C3 5.57188 3.3123 5.1719 3.75746 5.0606L11.5149 3.12124C11.8334 3.04162 12.1666 3.04162 12.4851 3.12124ZM3 8.99997H2V12C2 12.5523 2.44772 13 3 13V8.99997ZM22 8.99997H21V13C21.5523 13 22 12.5523 22 12V8.99997Z"/></svg>

<svg xmlns="http://www.w3.org/2000/svg" viewBox="0 0 24 24">
    <g>
        <path fill="none" d="M0 0H24V24H0z"/>
        <path d="M12.485 3.121l7.758 1.94c.445.11.757.51.757.97V7h1c1.1 0 2 .9 2 2v3c0 1.657-1.343 3-3 3h-.421c-.535 1.35-1.552 2.486-2.896 3.158l-4.789 2.395c-.563.281-1.225.281-1.788 0l-4.79-2.395C4.974 17.486 3.957 16.35 3.422 15H3c-1.657 0-3-1.343-3-3V9c0-1.105.895-2 2-2h1v-.97c0-.458.312-.858.757-.97l7.758-1.939c.318-.08.652-.08.97 0zM3 9H2v3c0 .552.448 1 1 1V9zm19 0h-1v4c.552 0 1-.448 1-1V9z"/>
    </g>
</svg>
